X:1
T:Title
%%score { 1 | 2 }
L:1/8
Q:1/4=90
M:6/8
K:F
V:1 treble nm="Grand Piano"
V:2 bass 
V:1
 AAA A[EG][FA] | [Ac]2 [Bd] [Ac]2 [FA] | [EG][EG][FA] [GB]3 | [FA][FA][GB] [Ac]3 | AAA A[EG]A | %5
w: J.~M.~Black * * * * *|||||
 c2 d c2 A | [EG][FA][GB] [FA]2 [EG] | [A,F]6 | [Fd][Fd][Fd] dcA | c2 d c2 A | ddd dcA | %11
w: ||||||
 [Ac][GB][FA] [EG]3 | AAA A[EG][FA] | [Ac]2 [Bd] [Ac]2 [FA] | [EG][FA][GB] [FA]2 [EG] | [A,F]6 |] %16
w: |||||
V:2
 [F,CF][F,CF][F,CF] [F,CF][C,C][F,C] | [F,F]2 [F,F] [F,F]2 [F,C] | [C,C][C,C][C,C] [C,C]3 | %3
 [F,C][F,C][F,C] [F,C]3 | [F,CF][F,CF][F,CF] [F,CF][C,C][F,CF] | [F,A,F]2 [F,B,F] [F,A,F]2 [F,CF] | %6
 [C,C][C,C][C,C] [C,C]2 [C,B,] | [F,,F,]6 | [B,,B,][B,,B,][D,B,][K:treble] [F,B,F][F,A,F][F,CF] | %9
 [F,A,F]2 [F,B,F] [F,A,F]2 [F,CF] | [B,F][B,F][B,F][K:bass] [F,B,F][F,A,F][F,CF] | %11
 [F,C][E,C][F,C] [C,C]3 | [F,CF][F,CF][F,CF] [F,CF][C,C][F,C] | [F,F]2 [F,F] [F,F]2 [F,C] | %14
 [C,C][C,C][C,C] [C,C]2 [C,B,] | [F,,F,]6 |] %16

